X:1
T:L'aurora - Donizetti
T:James Gibb editions
T:#
%%score [ 1 2 ] { 3 | 4 }
L:1/8
Q:1/4=72
M:2/4
K:C
V:1 treble nm="Canto I" snm="S I"
V:2 treble nm="Canto II" snm="S II"
V:3 treble nm="Midi_1"
V:4 bass 
V:1
 z4 z4 | z8 | z8 | z8 | z8 | z8 | z8 | z8 | z8 |[K:E][M:2/4][K:treble] z2 ^cB | B !>!G3- | %11
w: |||||||||Ve- di|co- me|
 G!wedge!B !wedge!c!wedge!B | B !>!G3- | G2 AB | c !>!d2 e | (d !>!f2) A | !turn!G3 F | %17
w: * in sul con-|fi- ne|* del Ve-|se- vo il|ciel * s'in-|do\- *|
 E z !wedge!c!wedge!B | B !>!G3- | G2 !wedge!c!wedge!B | B !>!G3- | G2 !wedge!e!wedge!e | %22
w: ra e le~au-|ret- te|* mat- tu-|ti- ne|* stan quell'|
 (d !>!f2) d | (c e2) c | (B"^calando" d2) B | (A c2) A | G z !>!g2 | (f/e/d/c/) (B/A/G/F/) | %28
w: on\- * de~a|ca\- * rez-|zar * si|stan * quell'|on- de~a|ca\- * * * rez\- * * *|
 E2 z2 | z2 !wedge!e !wedge!d |{/e} d !>!c3- | cc ec |{/d} c !>!B3- | B2 (gB) | (Af) A2- | %35
w: zar.|Vie- ni,~o|ca- ra|* in su quest'|o- ra|* par che|ri\- * da|
 A2 (fA) | (Ge G2- | G2 !wedge!e!wedge!d |{/e} d !>!c3- | c z ec |{/d} c !>!B3- | %41
w: * cie- lo~e|mar * *|* vie- ni,|vie- ni,|* vie- ni~o|ca- ra|
 B2 !wedge!e!wedge!e | d !>!e2 d | d !>!e2 d | f3 e) | d (!>!f2 e) | (d !>!f2) e | %47
w: * par che|ri- da il|cie- lo e~il|ma- *|re ah *|si vie- ni~ah|
"^cresc." (d f2) e | d (f2 e) |"^legato"!p! (defg) | (afge) | (fdec) | (dB) .c.B | %53
w: vie- ni o|ca- ra, o|ca\- * * *|||ra * Or bel-|
!>(! .B!>)! !>!G3- | .G.B{/d} .c.B | B !>!G3- | G2 .A.B | (c !>!d2 e) | (d !>!f2) A | !turn!G3 F | %60
w: ta- de|* e~a- mor t'ar-|ri- de|* ma bel-|ta- de~e a-|mor * non|du\- *|
 E z .c.B | B !>!G3- | G2 .c.B | B !>!G3- | G2 ee | (d !>!f2) d | (c !>!e2) c | %67
w: ra, vie- ni,|Li- sa|* fin- chè|ri- de|* lie- to~a|noi * degl'|an- ni il|
 (B d2)"^calando" B | (A !>!c2 A) | (GB) (eg) |!<(! (f/e/d/c/)!<)! (B/A/) (G/F/) |!>(! E2!>)! z2 | %72
w: fior * si|lie- to a|noi * degl' *|an\- * * * ni * il *|fior;|
 z2 .e.d |{/e} d !>!c3- | .c.c .e.c |{/d} c !>!B3- | B2 (gB) | (Af) !>!A2- | A(A fA) | (Ge G2- | %80
w: fra~il gio-|ir *|* del- la na|tu- ra|* deh ra-|gio\- * na|* a me d'a-|mor * *|
 G2) .e.d |{/e} d !>!c3- | c2 .e.c |{/d} c !>!B3- | B2 .e.d | d !>!e2 d | d !>!e2 d | (!>!f3 e) | %88
w: * vie- ni,~o|Li- sa|* fin- chè|ri- de|* lie- to~a|noi * degl'|an- ni il|fio\- *|
 d (!>!f2 e) | (d f2) e | d!<(! f2 e | d !>!f2 e!<)! |!p! (defg | afge | fdec) | (d B){/d} cB | %96
w: re ah *|si vie- ni,~o|ca- ra, o|ca- ra, o|ca\- * * *|||ra, * fra~il gio-|
 B !>!G3- | G.G .A.B | c !>!d2 e- | e !>!d2 c | B !>!G2 c | A !>!F2 B |:!p!!>(! Ge d!>)!e | %103
w: ir *|* del- la na-|tu\- * ra|* deh ra-|gio- na a|me * d'a\-|mor ra- gio- na|
 !>!^e4 | z c ^Bc | !>!d4 | z (e dc) | (Bc Bc) | (Be dc) | (Bc Bc) | (B !>!g2 !>!f- | f !>!e2) c | %112
w: me,|ra- gio- na|me|si fra~il gio-|ir del- la na-|tu- ra deh ra-|gio- na~a me d'a-|mor * *|* * ra\-|
!p! (^A !>!B2 c) | (G !>!=A2) B :| G z z2 | (B2 e2) | d4- | d4 | e z G2 | B2 e2 | d4- | d4 | %122
w: gio- na a|me * d'a-|mor.|vie- ni,|vie\-||ni, ah|vie- ni,|vie\-||
 e2 z2 | z4 |!f! a4- | a2 !fermata!d2 | e z z2 |] %127
w: ni,||vie\-||ni.|
V:2
 z4 z4 | z8 | z8 | z8 | z8 | z8 | z8 | z8 | z8 |[K:E][M:2/4][K:treble] z2 A^G | G !>!E3- | %11
w: |||||||||Ve- di|co- me|
 E!wedge!G !wedge!A!wedge!G | G !>!E3- | E2 FG | A !>!B2 c | (B !>!A2) D | !turn!E3 F | %17
w: * in sul con-|fi- ne|* del Ve-|se- vo il|ciel * s'in-|do\- *|
 G z !wedge!A!wedge!G | G !>!E3- | E2 !wedge!A!wedge!G | G !>!E3- | E2 !wedge!c!wedge!c | %22
w: ra e le~au-|ret- te|* mat- tu-|ti- ne|* stan quell'|
 (B !>!d2) B | (^A c2) A | (G"^calando" B2) G | (F A2) F | E z !>!e2 | (d/c/B/A/) (G/F/E/D/) | %28
w: on\- * de~a|ca\- * rez-|zar * si|stan * quell'|on- de~a|ca\- * * * rez\- * * *|
 E2 z2 | z2 !wedge!G !wedge!B |{/c} B !>!A3- | AA cA |{/B} A !>!G3- | G2 (BG) | (FA) F2- | %35
w: zar.|Vie- ni,~o|ca- ra|* in su quest'|o- ra|* par che|ri\- * da|
 F2 (AF) | (EG E2- | E2 !wedge!G!wedge!B |{/c} B !>!A3- | A z cA |{/B} A !>!G3- | G2 z2 | ^A3 A | %43
w: * cie- lo~e|mar * *|* vie- ni,|vie- ni,|* vie- ni~o|ca- ra||par che|
 B3 B | c F2 c | B2 ^A2) | (B2 ^A2) |"^cresc." (B2 ^A2) | B2 ^A2 |"^legato"!p! (Bcde) | (fdec) | %51
w: ri- da~e|cie- lo e|mar si|par che|ri- da~e|cie- lo~e|mar. * * *||
 (dBcA | BG) .A.G | .G E3- | .E.G{/B} .A.G | G E3- | E2 .F.G | (A !>!B2 c) | (B !>!A2) D | %59
w: |* * Or bel-|ta- de|* e~a- mor t'ar-|ri- de|* ma bel-|ta- de~e a-|mor * non|
 !turn!E3 F | G z .A.G | G !>!E3- | E2 .A.G | G !>!E3- | E2 cc | (B !>!d2) B | (^A !>!c2) A | %67
w: du\- *|ra, vie- ni,|Li- sa|* fin- chè|ri- de|* lie- to~a|noi * degl'|an- ni il|
 (G B2)"^calando" G | (F !>!A2 F) | (EG) (Be) |!<(! (d/c/B/A/)!<)! (G/F/) (E/D/) |!>(! E2!>)! z2 | %72
w: fior * si|lie- to a|noi * degl' *|an\- * * * ni * il *|fior;|
 z2 .G.B |{/c} B !>!A3- | .A.A .c.A |{/B} A !>!G3- | G2 (BG) | (FA) !>!F2- | F(F AF) | (EG E2- | %80
w: fra~il gio-|ir *|* del- la na|tu- ra|* deh ra-|gio\- * na|* a me d'a-|mor * *|
 E2) .A.B |{/c} B !>!A3- | A2 .c.A |{/B} A !>!G3- | G2 z2 | ^A2 AA | B3 B | c !>!F2 c | (B2 ^A2) | %89
w: * vie- ni,~o|Li- sa|* fin- chè|ri- de||lie- to degl'|an- ni~il|fio- re ah|vie- ni,|
 (B2 ^A2) | (B2 ^A2) | (B2 ^A2) |!p! (Bcde | fdec | dBcA) | (B G){/B} AG | G !>!E3- | E.E .F.G | %98
w: vie- ni,~o|ca\- *|ra, *|ca\- * * *|||ra, * fra~il gio-|ir *|* del- la na-|
 A !>!B2 c- | c !>!B2 A | G !>!E2 A | F !>!D2 G |:!p!!>(! E z2!>)! z | z (=dcB) | ^A4 | z (=cB=A) | %106
w: tu\- * ra|* deh ra-|gio- na a|me * d'a\-|mor,|d'a\- * *|mor,|d'a\- * *|
 G4 | A4 | G4 | A4 | (G !>!e2 !>!d- | d !>!c2) A |!p! (^^F !>!G2 A) | (^E !>!F2) D :| E z z2 | z4 | %116
w: mor,|ah|si|d'a-|mor * *|* * ra\-|gio- na a|me * d'a-|mor.||
 A4- | A4 | G z z2 | z2 G2 | A4- | A4 | G2 z2 | z4 |!f! f4- | f2 !fermata!A2 | G z z2 |] %127
w: vie\-||ni,|ah|vie\-||ni,||vie\-||ni.|
V:3
[K:E]"^allegro""^Leopoldo Tarantini\n(1811-82)""^Gaetano Donizetti\n (1797-1848)""^No.8 from \"Nuits d'été à Pausilippe\"" z!p!"^L'aurora" EEE | %1
 EEEE z4 | !>!C2 !wedge!E!wedge!E z4 | !wedge!=C2 !wedge!E!wedge!E z4 | %4
 !>!B,2 !wedge!E!wedge!E z4 | !wedge!^A,2 !wedge!E!wedge!E z4 | B, z !>![Bdb]2 z4 | z8 | %8
 z!pp! [B,EG][B,EG][B,EG] z4 | [B,EG][B,EG][B,EG][B,EG] | z [B,EG][B,EG][B,EG] | %11
 [B,EG][B,EG][B,EG][B,EG] | z [B,EG][B,EG][B,EG] | [B,EG][B,EG][B,EG][B,EG] | z [CFA][CFA][CFA] | %15
 z [B,FA][B,FA][B,FA] | z [B,EG][B,EG][B,EG] | [B,EG][B,EG][B,EG][B,EG] | z [B,EG][B,EG][B,EG] | %19
 [B,EG][B,EG][B,EG][B,EG] | z [B,EG][B,EG][B,EG] | z [G,CE][G,CE][G,CE] | z [DFB][DFB][DFB] | %23
 z [CE^A][CEA][CEA] | z [B,DG][B,DG][B,DG] | z [A,CF][A,CF][A,CF] | [B,E] z z2 | [A,D] z z2 | %28
 z .[B,EG].[B,EG].[B,EG] | .[B,EG].[B,EG].[B,EG].[B,EG] | z [CEA][CEA][CEA] | %31
 [CEA][CEA][CEA][CEA] | z [B,EG][B,EG][B,EG] | [B,EG][B,EG][B,EG][B,EG] | z [B,DA][B,DA][B,DA] | %35
 z [B,DA][B,DA][B,DA] | z [B,EG][B,EG][B,EG] | z [B,EG][B,EG][B,EG] | z [CEA][CEA][CEA] | %39
 [CEA][CEA][CEA][CEA] | z [B,EG][B,EG][B,EG] | [B,EG][B,EG][B,EG][B,EG] | z [^A,D][A,D][A,D] | %43
 z [B,D][B,D][B,D] | z [CE][CE][CE] | z [F,B,D] z [F,^A,E] | z [B,D] z [^A,E] | %47
 z [F,B,D] z [F,^A,E] | z [B,D] z [F,^A,E] | [B,D]2 z2 | z4 | z4 | z4 | z!p! [B,EG][B,EG][B,EG] | %54
 [B,EG][B,EG][B,EG][B,EG] | z [B,EG][B,EG][B,EG] | [B,EG][B,EG][B,EG][B,EG] | z [CFA][CFA][CFA] | %58
 z [B,FA][B,FA][B,FA] | z [B,EG][B,EG][B,EG] | [B,EG][B,EG][B,EG][B,EG] | z [B,EG][B,EG][B,EG] | %62
 [B,EG][B,EG][B,EG][B,EG] | z [B,EG][B,EG][B,EG] | z [CE][CE][CE] | z [DFB][DFB][DFB] | %66
 z [CE^A][CEA][CEA] | z [B,DG][B,DG][B,DG] | z [A,CF][A,CF][A,CF] | [B,E] z z2 | [A,D] z z2 | %71
 z [B,EG][B,EG][B,EG] | .[B,EG].[B,EG].[B,EG].[B,EG] | z .[CEA].[CEA].[CEA] | %74
 [CEA][CEA][CEA][CEA] | z [B,EG][B,EG][B,EG] | [B,EG][B,EG][B,EG][B,EG] | z [B,EA][B,EA][B,EA] | %78
 z [B,EA][B,EA][B,EA] | z [B,EG][B,EG][B,EG] | z [B,EG][B,EG][B,EG] | z [CEA][CEA][CEA] | %82
 [CEA][CEA][CEA][CEA] | z [B,EG][B,EG][B,EG] | [B,EG][B,EG][B,EG][B,EG] | z [^A,CE][A,CE][A,CE] | %86
 z [B,D][B,D][B,D] | z [CE][CE][CE] | z [F,B,D] z [F,^A,E] | z [F,B,D] z [F,^A,E] | %90
 z [F,B,D] z [F,^A,E] | z [F,B,D] z [F,^A,E] | [B,D]2 z2 | z4 | z4 | z4 | z [B,EG][B,EG][B,EG] | %97
 [B,EG][B,EG][B,EG][B,EG] | z [CEA][CEA][CEA] | z [CEA][CEA][CEA] | z [B,EG][B,EG][B,EG] | %101
 z [B,DA][B,DA][B,DA] |: z [B,EG] z [B,EG] | z [B,^EG] z [B,EG] | z [^A,=EF] z [A,EF] | %105
 z [=A,DF] z [A,DF] | z [G,B,E] z [G,^^CG] | z [B,DA] z [B,FA] | z [B,EG] z [B,=DG] | %109
 z [B,^DA] z [B,FA] | z [B,G] z [df] | z!<(! [ce] z!<)! [Ac] | z [B,EG] z [B,EG] | %113
 z [B,DF] z [B,DF] :| [EG] z!p!{/[Bd]} .[Ac].[GB] | [GB] !>![EG]2 [GB] | [FA]2 .[Fc].[FB] | %117
 [FA]2 .[Fc].[FB] | [EG]2{/[Bd]} .[Ac].[GB] | [GB] !>![EG]2 [GB] | [FA]2 .[Fc].[FB] | %121
 [FA]2 .[Fc].[FB] | A/G/^^F/G/ c/B/^A/B/ | !>!f/e/d/e/ !>!=a/g/f/g/ |!f! [Bdfb]2 z2 | !fermata!z4 | %126
 [EG] z [EGBe]2 |] %127
V:4
[K:E] z!p! [E,,E,][E,,E,][E,,E,] | [E,,E,][E,,E,][E,,E,][E,,E,] z4 | %2
 !>![C,,C,]2 !wedge![E,,E,]!wedge![E,,E,] z4 | !>![=C,,=C,]2 !wedge![E,,E,]!wedge![E,,E,] z4 | %4
 !>![B,,,B,,]2 !wedge![E,,E,]!wedge![E,,E,] z4 | %5
 !wedge![^A,,,^A,,]2 !wedge![E,,E,]!wedge![E,,E,] z4 | [B,,,B,,] z !>![B,,,B,,]2 z4 | z8 | %8
 E,, z z2 z4 | z4 | E,, z z2 | z4 | E,, z z2 | z4 | A,, z z2 | B,, z z2 | E,, z z2 | z4 | %18
 E,, z z2 | z4 | E,, z z2 | C, z z2 | F,, z z2 | F,, z z2 | G,, z z2 | A,, z z2 | [B,,G,] z z2 | %27
 B,,, z z2 | E,, z z2 | z4 | E,, z z2 | z4 | E,, z z2 | z4 | B,,, z z2 | B,, z z2 | E,, z z2 | %37
 E, z z2 | E,, z z2 | z4 | E,, z z2 | z4 | ^^F,,4 | G,,4 | ^A,,4 | B,, z =C, z | B,, z =C, z | %47
 B,, z =C, z | B,, z [F,,F,] z | [B,,,B,,]4- | [B,,,B,,]4 | [B,,,B,,]2 z2 | z4 | E,, z z2 | z4 | %55
 E,, z z2 | z4 | A,, z z2 | B,, z z2 | E,, z z2 | z4 | E,, z z2 | z4 | E,, z z2 | C, z z2 | %65
 F,, z z2 | ^^F,, z z2 | G,, z z2 |"^calando" A,, z z2 | B,, z z2 | B,,, z z2 | E,, z z2 | z4 | %73
 E,, z z2 | z4 | E,, z z2 | z4 | B,,, z z2 | B,, z z2 | E,, z z2 | E, z z2 | E,, z z2 | z4 | %83
 E,, z z2 | z4 | ^^F,,4 | G,,4 | ^A,,4 | B,, z =C, z | B,, z =C, z | B,, z [F,,F,] z | %91
 B,, z [F,,F,] z | [B,,,B,,]4- | [B,,,B,,]4 | [B,,,B,,]2 z2 | z4 | E,, z z2 | z4 | A,, z z2 | %99
 A,, z z2 | B,, z z2 | B,,, z z2 |: E,, z E,, z | ^C,, z C,, z | F,, z F,, z | B,,, z B,,, z | %106
 E,, z ^E,, z | F,, z D,, z | E,, z ^E,, z | F,, z D,, z | =E,, z E,, z | A,, z A,, z | %112
 B,, z B,, z | B,, z B,, z :| E,[G,B,E]E,[G,B,E] | E,[G,B,E]E,[G,B,E] | E,[A,B,D]E,[A,B,D] | %117
 E,[A,B,D]E,[A,B,D] | E,[G,B,E]E,[G,B,E] | E,[G,B,E]E,[G,B,E] | E,[A,B,D]E,[A,B,D] | %121
 E,[A,B,D]E,[A,B,D] | E,[G,B,]B,,[G,B,] | G,,[E,G,]E,,[B,,E,] |!f! [B,,,B,,]2 z2 | !fermata!z4 | %126
 E, z [E,,E,]2 |] %127

